build/img/icon-email.svg

<svg width="26" height="26" viewBox="0 0 26 26" fill="#0AD9C6" xmlns="http://www.w3.org/2000/svg">
<path d="M24.2273 3H1.77273C0.768182 3 0 3.76471 0 4.76471V21.2353C0 22.2353 0.768182 23 1.77273 23H24.2273C25.2318 23 26 22.2353 26 21.2353V4.76471C26 3.76471 25.2318 3 24.2273 3ZM24.2273 20L19.5591 15.3529C19.2045 15 18.6727 15 18.3182 15.3529C17.9636 15.7059 17.9636 16.2353 18.3182 16.5882L22.9864 21.2353H3.01362L7.68182 16.5882C8.03636 16.2353 8.03636 15.7059 7.68182 15.3529C7.32727 15 6.79547 15 6.44092 15.3529L1.77273 20V8.70585L12.4091 16.7059C12.5864 16.8236 12.7636 16.8823 12.9409 16.8823C13.1182 16.8823 13.2954 16.8236 13.4727 16.7059L24.2273 8.70585V20ZM24.2273 4.76471V6.4706L12.9409 14.8235L1.77273 6.4706V4.76471H24.2273Z"/>
</svg>

<svg width="26" height="26" fill="#0AD9C6" xmlns="http://www.w3.org/2000/svg"><path d="M24.227 3H1.773C.768 3 0 3.765 0 4.765v16.47C0 22.235.768 23 1.773 23h22.454C25.232 23 26 22.235 26 21.235V4.765c0-1-.768-1.765-1.773-1.765zm0 17l-4.668-4.647a.86.86 0 00-1.24 0 .85.85 0 000 1.235l4.667 4.647H3.014l4.668-4.647a.85.85 0 000-1.235.86.86 0 00-1.241 0L1.773 20V8.706l10.636 8a.955.955 0 00.532.176.955.955 0 00.532-.176l10.754-8V20zm0-15.235V6.47l-11.286 8.352L1.773 6.471V4.765h22.454z"/></svg>
